X:145
T:Tenpenny Bit, The
T:Three Little Drummers, The
M:6/8
F:http://blackrosetheband.googlepages.com/ABCTUNES.ABC May 2009
L:1/8
R:jig
Z:id:hn-jig-16
K:Ador
"Am"eAA eAA|"G"BAB GBd|"Am"eAA eAA|"G"def gfg|
"Am"eAA eAA|"G"BAB GBd|"Em"~e3 gdB|"G"BAG "Am"A3:|
|:"Am"eaa aga|"G"bab ged|"Am"eaa aga|"G"bgf ~g3|
"Am"eaa aga|"G"bab ged|"Em"~e3 gdB|"G"BAG "Am"A3:|
